**kern
*staff1
*tb16
=1-
*clefG2
*k[f#]
*M6/8
4r
.
.
.
8r
.
8b\
.
8cc\
.
8cc#\
.
=2
4ee^\
.
.
.
8dd\
.
8cc\
.
8b/
.
8a/
.
=3
4g/
.
.
.
8r
.
4a/
.
.
.
8g/
.
=4
!!linebreak:original
4b/
.
.
.
8a/
.
8g/
.
8f#/
.
8e/
.
=5
4d/
.
.
.
8r
.
8ff#\
.
8ee'\
.
8dd'\
.
=6
8cc#\L
.
8b\J
.
8a/
.
8g/
.
8f#/
.
8e/
.
=7
4.d/
.
.
.
.
.
8d#/
.
8c#/
.
8d#/
.
=8
!!linebreak:original
4f#/
.
.
.
8e/
.
8f#/
.
8e/
.
8f#/
.
=9
4g/
.
.
.
8r
.
8g#/
.
8f#/
.
8g#/
.
=10
4b/
.
.
.
8a/
.
8b/
.
8a/
.
8b/
.
=11
4cc\
.
.
.
8r
.
8cc#\
.
8b/
.
8cc#\
.
=12
!!linebreak:original
*^
2.ryy	4ee^\
.	.
.	.
.	.
.	8dd\
.	.
.	8cc#\
.	.
.	8r
.	.
.	8r
.	.
*v	*v
=13
4g/
.
.
.
8r
.
4.r
.
.
.
.
.
=14
2.r
.
.
.
.
.
.
.
.
.
.
.
=15
4r
.
.
.
8r
.
8b/
.
8cc\
.
8cc#\
.
=16
!!linebreak:original
*^
2.ryy	4ee^\
.	.
.	.
.	.
.	8dd\
.	.
.	8cc#\
.	.
.	8r
.	.
.	8r
.	.
*v	*v
=17
4g/
.
.
.
8r
.
4a/
.
.
.
8g/
.
=18
8b/
.
*^
8a/ 8a/	8f#/
.	.
*v	*v
8g/
.
8gn/
.
8e/
.
8a/
.
=19
4d/
.
.
.
8r
.
8ff#\
.
8ee\
.
8dd\
.
=20
!!linebreak:original
8cc\L
.
8b\J
.
8a/
.
8g/
.
8e/
.
16r
16a/
=21
4d/
.
.
.
8r
.
8d#/
.
8c#/
.
8d#/
.
=22
8f#/
.
8e/
.
8e/
.
8f#/
.
8e/
.
8f#/
.
=23
4g/
.
.
.
8r
.
8g#/
.
8f#/
.
8g#/
.
=24
!!linebreak:original
4b/
.
.
.
8.a/
.
.
8.a/
.
.
8b/
.
=25
4cc\
.
.
.
8r
.
8cc#\
.
8b\
.
8cc#\
.
=26
8ee^\L
.
8dd\J
.
8cc#\
.
8cc#\
.
8a/
.
8dd\
.
=27
4g/
.
.
.
8r
.
4.r
.
.
.
.
.
=28
!!linebreak:original
2.r
.
.
.
.
.
.
.
.
.
.
.
=29
4r
.
.
.
8r
.
8b/
.
8cc\
.
8dd\
.
=30
4ee\
.
.
.
8a/
.
8a/
.
8g#/
.
8a/
.
=31
4dd^\
.
.
.
8r
.
8dd\
.
8cc#\
.
8dd\
.
=32
!!linebreak:original
8dd\L
.
8a\J
.
8f#/
.
8g/
.
8e/
.
8a/
.
=33
4d/
.
.
.
8r
.
8ff#\
.
8ee\
.
8dd\
.
=34
8cc#\
.
8b/
.
8a/
.
8g/
.
8f#/
.
8e/
.
=35
4.d#/
.
.
.
.
.
8e/
.
8d#/
.
8e/
.
=36
!!linebreak:original
4g/
.
.
.
8f#/
.
8g/
.
8f#/
.
8g/
.
=37
4g#/
.
.
.
8r
.
8a/
.
8g#/
.
8a/
.
=38
4cc\
.
.
.
8b/
.
8cc\
.
8b/
.
8cc\
.
=39
4cc#\
.
.
.
8r
.
8cc#\
.
8b#/
.
8cc#\
.
=40
!!linebreak:original
8gg\
.
8cc#\
.
8cc#\
.
8cc#\
.
8b/
.
8cc#\
.
=41
4dd\
.
.
.
8r
.
8dd\
.
8cc#\
.
8dd\
.
=42
8ee-\L
.
8dd\J
.
8ccn\
.
8b-/
.
8a/
.
8g/
.
=43
4f#/
.
.
.
8r
.
8dd\
.
8cc#\
.
8dd\
.
=44
4.ffn^\
.
.
.
.
.
8ee\
.
8r
.
8ee\
.
=45
!!linebreak:original
*k[f#c#]
[4.gg^\
.
.
.
.
.
8gg\]
.
8ff#\
.
8ee\
.
=46
[4dd^\
.
.
.
8.dd\L]
.
.
8.cc#\J
.
.
8a/
.
=47
4g/
.
.
.
8r
.
4.r
.
.
.
.
.
=48
2.r
.
.
.
.
.
.
.
.
.
.
.
=49
2.r
.
.
.
.
.
.
.
.
.
.
.
==
*-
